X:1523
T:Field of Oats, The
R:reel
N:"collected from F. O'Neill"
B:"O'Neill's Dance Music of Ireland, 1523"
T: pairc an coir.ce.
Z:transcribed by John B. Walsh, walsh@math.ubc.ca 8/23/96
M:C|
L:1/8
K:G
(BA) "Segno"|:GEEF G2 (EF)|G2 (FG) AcBA|1 GEEF G2 (ef)|gfed B2 BA:|2 GFEF GABa|gef^d e2 ef||
g2 bg f2 af|e2 fe BBef|gabg fgag|gfe^d e2 (ef)|
g2 bg f2 af|e2 fe BBef|ggbg f2 af|gfe^d e=dBA "Segno"||


